picto/car-ferry-right.svg

<svg class="color-immutable" width="24" height="24" viewBox="0 0 24 24" fill="none" xmlns="http://www.w3.org/2000/svg"><g clip-path="url(#a)"><path d="M0 22.5v-21C0 .675.675 0 1.5 0h21c.825 0 1.5.675 1.5 1.5v21c0 .825-.675 1.5-1.5 1.5h-21C.675 24 0 23.325 0 22.5Z" fill="#2D327D"/><path d="M8.359 14.016a.234.234 0 0 1-.234-.234V12.13c0-.187.074-.365.206-.497l1.407-1.407a.703.703 0 0 1 .497-.206h4.052c.187 0 .365.074.497.206l1.634 1.634 2.742.227c.121.01.215.112.215.234v1.461a.234.234 0 0 1-.234.234h-.258v-.269a1.407 1.407 0 0 0-2.812 0v.269h-4.664v-.269a1.407 1.407 0 0 0-2.812 0v.269h-.236Zm4.194-3.316.002.961c0 .129.105.234.234.234h2.73a.112.112 0 0 0 .079-.191l-1.169-1.169a.235.235 0 0 0-.166-.068h-1.476a.232.232 0 0 0-.234.233Zm-3.551 1.194h2.871a.234.234 0 0 0 .234-.234v-.961a.234.234 0 0 0-.234-.234h-1.616a.239.239 0 0 0-.166.068l-1.169 1.169a.113.113 0 0 0-.033.079.114.114 0 0 0 .113.113Z" fill="#fff"/><path d="M18.725 19.288a12.528 12.528 0 0 0-1.306-.219 8.348 8.348 0 0 0-3.566.299 5.617 5.617 0 0 1-1.809.246 5.604 5.604 0 0 1-1.792-.355 8.37 8.37 0 0 0-3.541-.514A12.708 12.708 0 0 0 3 19.51l.002-6.01h2.392a.375.375 0 0 0 .375-.375l-.001-.021-.082-1.425a.374.374 0 0 0-.374-.353h-2.31V9.75h2.176a.375.375 0 0 0 .375-.375l-.001-.022-.08-1.388a.375.375 0 0 0-.374-.352H3.002V6.75H6.79a.3.3 0 0 1 .3.3v.035a.413.413 0 0 1-.376.411l-.46.041 1.205 6.843c.062.359.374.62.738.62h11.43l1.244-3.075.561.212-2.707 7.151Z" fill="#fff"/><path d="M3 20.071a12.23 12.23 0 0 1 3.744-.802 7.86 7.86 0 0 1 3.323.481 6.116 6.116 0 0 0 2.137.391c.611 0 1.219-.092 1.803-.272a7.841 7.841 0 0 1 3.346-.28c1.26.144 2.49.484 3.646 1.006v.954a11.359 11.359 0 0 0-3.753-1.104 6.991 6.991 0 0 0-2.986.248A7.001 7.001 0 0 1 12 21a6.985 6.985 0 0 1-2.237-.443 6.987 6.987 0 0 0-2.966-.427A11.344 11.344 0 0 0 3 21.001v-.93Z" fill="#fff"/><path fill-rule="evenodd" clip-rule="evenodd" d="M9.999 14.192a.489.489 0 1 0-.001-.977.489.489 0 0 0 .001.977Zm0-1.554a1.067 1.067 0 1 1 0 2.135 1.067 1.067 0 0 1 0-2.135ZM17.475 14.192a.489.489 0 1 0-.001-.977.489.489 0 0 0 .001.977Zm0-1.554a1.067 1.067 0 1 1-.001 2.133 1.067 1.067 0 0 1 .001-2.133Z" fill="#fff"/></g><defs><clipPath id="a"><path fill="#fff" d="M0 0h24v24H0z"/></clipPath></defs></svg>

<svg class="color-immutable" width="24" height="24" viewBox="0 0 24 24" fill="none" xmlns="http://www.w3.org/2000/svg"><path d="M0 22.5V1.5C0 0.675 0.675 0 1.5 0H22.5C23.325 0 24 0.675 24 1.5V22.5C24 23.325 23.325 24 22.5 24H1.5C0.675 24 0 23.325 0 22.5Z" fill="#2D327D"/><path d="M8.359 14.016C8.23 14.016 8.125 13.911 8.125 13.782V12.13C8.125 11.943 8.199 11.765 8.331 11.633L9.738 10.226C9.87 10.094 10.049 10.02 10.235 10.02H14.287C14.474 10.02 14.652 10.094 14.784 10.226L16.418 11.86L19.16 12.087C19.281 12.097 19.375 12.199 19.375 12.321V13.782C19.375 13.911 19.27 14.016 19.141 14.016H18.883V13.747C18.883 12.971 18.253 12.341 17.477 12.341C16.701 12.341 16.071 12.971 16.071 13.747V14.016H11.407V13.747C11.407 12.971 10.777 12.341 10.001 12.341C9.225 12.341 8.595 12.971 8.595 13.747V14.016H8.359ZM12.553 10.7L12.555 11.661C12.555 11.79 12.66 11.895 12.789 11.895H15.519C15.581 11.895 15.631 11.845 15.631 11.783C15.631 11.753 15.619 11.725 15.598 11.704L14.429 10.535C14.385 10.491 14.325 10.467 14.263 10.467H12.787C12.658 10.465 12.553 10.57 12.553 10.7ZM9.002 11.894H11.873C12.002 11.894 12.107 11.789 12.107 11.66V10.699C12.107 10.57 12.002 10.465 11.873 10.465H10.257C10.195 10.465 10.135 10.49 10.091 10.533L8.922 11.702C8.901 11.723 8.889 11.752 8.889 11.781C8.89 11.844 8.94 11.894 9.002 11.894Z" fill="white"/><path d="M18.725 19.288C18.294 19.192 17.858 19.119 17.419 19.069C17.054 19.02 16.687 18.996 16.319 18.996C15.483 18.996 14.652 19.121 13.853 19.368C13.319 19.532 12.763 19.616 12.205 19.616C12.151 19.616 12.097 19.615 12.044 19.614C11.431 19.595 10.826 19.474 10.252 19.259C9.31 18.905 8.313 18.724 7.307 18.724C7.108 18.724 6.909 18.731 6.711 18.745C5.443 18.813 4.192 19.071 3 19.51L3.002 13.5H5.394C5.601 13.5 5.769 13.332 5.769 13.125C5.769 13.118 5.769 13.111 5.768 13.104L5.686 11.679C5.675 11.481 5.511 11.326 5.312 11.326H3.002V9.75H5.178C5.385 9.75 5.553 9.582 5.553 9.375C5.553 9.367 5.553 9.36 5.552 9.353L5.472 7.965C5.46 7.767 5.296 7.613 5.098 7.613H3.002V6.75H6.79C6.956 6.75 7.09 6.884 7.09 7.05V7.085C7.09 7.298 6.927 7.477 6.714 7.496L6.254 7.537L7.459 14.38C7.521 14.739 7.833 15 8.197 15H19.627L20.871 11.925L21.432 12.137L18.725 19.288Z" fill="white"/><path d="M3 20.071C4.198 19.609 5.461 19.338 6.744 19.269C6.931 19.256 7.119 19.249 7.307 19.249C8.25 19.249 9.184 19.419 10.067 19.75C10.695 19.986 11.357 20.117 12.027 20.138C12.086 20.14 12.145 20.141 12.204 20.141C12.815 20.141 13.423 20.049 14.007 19.869C14.756 19.638 15.535 19.521 16.318 19.521C16.664 19.521 17.01 19.544 17.353 19.589C18.613 19.733 19.843 20.073 20.999 20.595V21.549C19.821 20.967 18.552 20.593 17.246 20.445C16.938 20.404 16.628 20.383 16.317 20.383C15.619 20.383 14.926 20.488 14.26 20.693C13.593 20.898 12.9 21.003 12.203 21.003C12.135 21.003 12.068 21.002 12 21C11.235 20.976 10.479 20.826 9.763 20.557C8.978 20.262 8.145 20.111 7.306 20.111C7.136 20.111 6.967 20.117 6.797 20.13C5.491 20.199 4.206 20.494 3 21.001V20.071Z" fill="white"/><path fill-rule="evenodd" clip-rule="evenodd" d="M9.99901 14.192C10.268 14.192 10.487 13.973 10.487 13.704C10.487 13.435 10.269 13.216 9.99901 13.216C9.73001 13.216 9.51101 13.435 9.51101 13.704C9.51101 13.974 9.73001 14.192 9.99901 14.192ZM9.99901 12.638C10.588 12.638 11.066 13.116 11.066 13.705C11.066 14.294 10.588 14.771 9.99901 14.771C9.41001 14.771 8.93301 14.293 8.93301 13.705C8.93301 13.116 9.41001 12.638 9.99901 12.638Z" fill="white"/><path fill-rule="evenodd" clip-rule="evenodd" d="M17.475 14.192C17.744 14.192 17.963 13.973 17.963 13.704C17.963 13.435 17.744 13.216 17.475 13.216C17.206 13.216 16.987 13.435 16.987 13.704C16.987 13.974 17.206 14.192 17.475 14.192ZM17.475 12.638C18.064 12.638 18.541 13.116 18.541 13.705C18.541 14.294 18.063 14.771 17.475 14.771C16.886 14.771 16.409 14.293 16.409 13.705C16.409 13.116 16.886 12.638 17.475 12.638Z" fill="white"/></svg>
